X:1
T:(1906)
T:J. C. Folwell (fl.1904)
T:Mistletoe Waltz
%%score { ( 1 2 ) ( 3 4 ) }
L:1/8
Q:1/4=132
M:3/4
K:C
V:1 treble-8 nm="Guitare classique"
V:2 treble-8 
V:3 tab stafflines=6 strings=E2,A2,D3,G3,B3,E4 nostems nm="Guitare classique [Tablature]"
V:4 tab stafflines=6 strings=E2,A2,D3,G3,B3,E4 nostems 
V:1
SS"^Intro.""_" !1!!4![Gcg]6 |!>(! !1!!4![G^ca]6 | !2!!4!!1![Adf]3 e d2 | A2 B2 c2 | [Gce]6!>)! | %5
 !arpeggio![GBe]2 G2 d2 | c6- | !fermata!c2 ||[Q:1/4=176]"_" g2 ^g2 | !4!a4 !2!g2 | !1!f4 !4!g2 | %11
 e6- | e2 !4!^d2 e2 | !4!g6- | g2 !2!^c2 !3!d2 | g6 | z2 g2 ^g2 | a4 g2 | f4 g2 | e6- | e2 ^d2 e2 | %21
 !4!g2 !2!A2 !1!f2 | e2 G2 d2 | c6- | c2!fine! ::[K:G]"_" !3!d2 !4!^d2 | e6- | e2 !3!f2 !4!d2 | %28
 g6- | g2 f2 g2 | !3!^g6- | g2 !1!=f2 e2 |"^₵5" a6- | a2 !4!b2 !1!a2 | e6- | e2 !4!b2 !2!a2 | %36
 !4!d'6- | d'2 !1!b2 !2!g2 | e6 | !3!f6 | [GBg]6- | [GBg]2 ::[K:C] e2 f2 | !4![GBg]2 !3!d2 !1!f2 | %44
 A2 B2 G2 | e6- | e2 !4!^d2 e2 | f6- | f2 A2 G2 | e6- | e2 e2 f2 | [GBg]2 d2 f2 | A2 B2 G2 | e6- | %54
 e2 ^d2 e2 | f6 | B6 | c6- | c2 ::"_" z4 | FGEGDG | CGB,GA,G | z2 [Gce]2 [Gce]2 | [Gce]2 z2 z2 | %64
 z2 [GBf]2 [GBf]2 | [GBf]2 z2 z2 | z2 [Gce]2 [Gce]2 | [Gce]2 z2 z2 | FGEGDG | CGB,GA,G | %70
 z2 [Gce]2 [Gce]2 | [Gce]2 z2 z2 | z2 [Ac^f]2 [Acf]2 | z2 !1![GB=f]2 [GBf]2 | [Gce]2 z2 z2 | %75
 z2!D.S.! :| %76
V:2
 !2!E6 | A,6 | D6 | z6 | G,6 | F6 | C2 G2 E2 | C2 || z4 | D2 [GB]2 z2 | D2 [GB]2 z2 | %11
 C2 [Gc]2 [Gc]2 | G,2 z2 z2 | D2 [GB]2 [GB]2 | !3!F2 z2 z2 | E2 [Gc]2 [Gc]2 | G,2 z2 z2 | %17
 D2 [GB]2 z2 | D2 [GB]2 z2 | C2 [Gc]2 [Gc]2 | G,2 z2 z2 | D4 z2 | G,4 z2 | C2 G2 E2 | C2 :: %25
[K:G] z4 | A,2 !2!!1![Ac]2 [Ac]2 | D6 | G,2 [GB]2 [GB]2 | D2 z2 z2 | E,2 !2!!1![Bd]2 [Bd]2 | %31
 E,2 z2 z2 | A,2 [ce]2 [ce]2 | A,4 z2 | A,2 [Ac]2 [Ac]2 | A,6 | D2 [GB]2 [GB]2 | D4 z2 | %38
 A,2 [Ac]2 [Ac]2 | D2 [Ac]2 [Ac]2 | G,2 D2 B,2 | G,2 ::[K:C] z4 | D6 | z6 | C2 [Gc]2 [Gc]2 | %46
 G,2 z2 z2 | D2 [GB]2 [GB]2 | G,2 z2 z2 | C2 [Gc]2 [Gc]2 | G,2 z2 z2 | D6 | z6 | C2 [Gc]2 [Gc]2 | %54
 G,2 z2 z2 | D2 [GB]2 [GB]2 | G,2 [Gf]2 [Gf]2 | C2 G2 E2 | C2 :: D2 E2 | F2 E2 D2 | C2 B,2 A,2 | %62
 G,6- | G,2 E2 C2 | B,6- | B,2 D2 ^D2 | E6- | E2 D2 E2 | F2 E2 D2 | C2 B,2 A,2 | G,6- | G,2 E2 C2 | %72
 A,6 | !2!B,6 | C2 G2 E2 | !fermata!C2 :| %76
V:3
 [!3!G,!2!C!1!G]6 | [!3!G,!2!^C!1!A]6 | [!3!A,!2!D!1!F]3 !1!E !2!D2 | !3!A,2 !2!B,2 !2!C2 | %4
 [!3!G,!2!C!1!E]6 | [!3!G,!2!B,!1!E]2 !3!G,2 !2!D2 | !2!C6- | !2!C2 || !1!G2 !1!^G2 | !1!A4 !1!G2 | %10
 !1!F4 !1!G2 | !1!E6- | !1!E2 !2!^D2 !1!E2 | !1!G6- | !1!G2 !2!^C2 !2!D2 | !1!G6 | %16
 x2 !1!G2 !1!^G2 | !1!A4 !1!G2 | !1!F4 !1!G2 | !1!E6- | !1!E2 !2!^D2 !1!E2 | !1!G2 !3!A,2 !1!F2 | %22
 !1!E2 !3!G,2 !2!D2 | !2!C6- | !2!C2 ::[K:G] !2!D2 !2!^D2 | !1!E6- | !1!E2 !1!F2 !2!D2 | !1!G6- | %29
 !1!G2 !1!F2 !1!G2 | !1!^G6- | !1!G2 !1!=F2 !1!E2 | !1!A6- | !1!A2 !1!B2 !1!A2 | !1!E6- | %35
 !1!E2 !1!B2 !1!A2 | !1!d6- | !1!d2 !1!B2 !2!G2 | !1!E6 | !1!F6 | [!3!G,!2!B,!1!G]6- | %41
 [!3!G,!2!B,!1!G]2 ::[K:C] !1!E2 !1!F2 | [!3!G,!2!B,!1!G]2 !2!D2 !1!F2 | !3!A,2 !2!B,2 !3!G,2 | %45
 !1!E6- | !1!E2 !2!^D2 !1!E2 | !1!F6- | !1!F2 !3!A,2 !3!G,2 | !1!E6- | !1!E2 !1!E2 !1!F2 | %51
 [!3!G,!2!B,!1!G]2 !2!D2 !1!F2 | !3!A,2 !2!B,2 !3!G,2 | !1!E6- | !1!E2 !2!^D2 !1!E2 | !1!F6 | %56
 !2!B,6 | !2!C6- | !2!C2 :: x4 | !4!F, !3!G, !4!E, !3!G, !4!D, !3!G, | %61
 !5!C, !3!G, !5!B,, !3!G, !5!A,, !3!G, | x2 [!3!G,!2!C!1!E]2 [!3!G,!2!C!1!E]2 | %63
 [!3!G,!2!C!1!E]2 x2 x2 | x2 [!3!G,!2!B,!1!F]2 [!3!G,!2!B,!1!F]2 | [!3!G,!2!B,!1!F]2 x2 x2 | %66
 x2 [!3!G,!2!C!1!E]2 [!3!G,!2!C!1!E]2 | [!3!G,!2!C!1!E]2 x2 x2 | %68
 !4!F, !3!G, !4!E, !3!G, !4!D, !3!G, | !5!C, !3!G, !5!B,, !3!G, !5!A,, !3!G, | %70
 x2 [!3!G,!2!C!1!E]2 [!3!G,!2!C!1!E]2 | [!3!G,!2!C!1!E]2 x2 x2 | %72
 x2 [!3!A,!2!C!1!^F]2 [!3!A,!2!C!1!F]2 | x2 [!3!G,!2!B,!1!=F]2 [!3!G,!2!B,!1!F]2 | %74
 [!3!G,!2!C!1!E]2 x2 x2 | x2 :| %76
V:4
 !4!E,6 | !5!A,,6 | !4!D,6 | x6 | !6!G,,6 | !4!F,6 | !5!C,2 !3!G,2 !4!E,2 | !5!C,2 || x4 | %9
 !4!D,2 [!3!G,!2!B,]2 x2 | !4!D,2 [!3!G,!2!B,]2 x2 | !5!C,2 [!3!G,!2!C]2 [!3!G,!2!C]2 | %12
 !6!G,,2 x2 x2 | !4!D,2 [!3!G,!2!B,]2 [!3!G,!2!B,]2 | !4!F,2 x2 x2 | %15
 !4!E,2 [!3!G,!2!C]2 [!3!G,!2!C]2 | !6!G,,2 x2 x2 | !4!D,2 [!3!G,!2!B,]2 x2 | %18
 !4!D,2 [!3!G,!2!B,]2 x2 | !5!C,2 [!3!G,!2!C]2 [!3!G,!2!C]2 | !6!G,,2 x2 x2 | !4!D,4 x2 | %22
 !6!G,,4 x2 | !5!C,2 !3!G,2 !4!E,2 | !5!C,2 ::[K:G] x4 | !5!A,,2 [!3!A,!2!C]2 [!3!A,!2!C]2 | %27
 !4!D,6 | !6!G,,2 [!3!G,!2!B,]2 [!3!G,!2!B,]2 | !4!D,2 x2 x2 | !6!E,,2 [!3!B,!2!D]2 [!3!B,!2!D]2 | %31
 !6!E,,2 x2 x2 | !5!A,,2 [!3!C!2!E]2 [!3!C!2!E]2 | !5!A,,4 x2 | !5!A,,2 [!3!A,!2!C]2 [!3!A,!2!C]2 | %35
 !5!A,,6 | !4!D,2 [!3!G,!2!B,]2 [!3!G,!2!B,]2 | !4!D,4 x2 | !5!A,,2 [!3!A,!2!C]2 [!3!A,!2!C]2 | %39
 !4!D,2 [!3!A,!2!C]2 [!3!A,!2!C]2 | !6!G,,2 !4!D,2 !5!B,,2 | !6!G,,2 ::[K:C] x4 | !4!D,6 | x6 | %45
 !5!C,2 [!3!G,!2!C]2 [!3!G,!2!C]2 | !6!G,,2 x2 x2 | !4!D,2 [!3!G,!2!B,]2 [!3!G,!2!B,]2 | %48
 !6!G,,2 x2 x2 | !5!C,2 [!3!G,!2!C]2 [!3!G,!2!C]2 | !6!G,,2 x2 x2 | !4!D,6 | x6 | %53
 !5!C,2 [!3!G,!2!C]2 [!3!G,!2!C]2 | !6!G,,2 x2 x2 | !4!D,2 [!3!G,!2!B,]2 [!3!G,!2!B,]2 | %56
 !6!G,,2 [!3!G,!1!F]2 [!3!G,!1!F]2 | !5!C,2 !3!G,2 !4!E,2 | !5!C,2 :: !4!D,2 !4!E,2 | x2 x2 x2 | %61
 x2 x2 x2 | !6!G,,6- | !6!G,,2 !4!E,2 !5!C,2 | !5!B,,6- | !5!B,,2 !4!D,2 !4!^D,2 | !4!E,6- | %67
 !4!E,2 !4!D,2 !4!E,2 | x2 x2 x2 | x2 x2 x2 | !6!G,,6- | !6!G,,2 !4!E,2 !5!C,2 | !5!A,,6 | %73
 !5!B,,6 | !5!C,2 !3!G,2 !4!E,2 | !5!C,2 :| %76

